source/images/icons/dribbble.svg

<?xml version="1.0" encoding="UTF-8" standalone="no"?>
<svg width="30px" height="30px" viewBox="0 0 30 30" version="1.1" xmlns="http://www.w3.org/2000/svg" xmlns:xlink="http://www.w3.org/1999/xlink">
    <!-- Generator: Sketch 39.1 (31720) - http://www.bohemiancoding.com/sketch -->
    <title>dribbble</title>
    <desc>Created with Sketch.</desc>
    <defs></defs>
    <g id="Speakers" stroke="none" stroke-width="1" fill="none" fill-rule="evenodd">
        <path d="M14.31875,12.48125 C12.545,13.0025 10.43125,13.27125 7.985,13.28875 C8.49125,11.22125 9.8825,9.50125 11.73875,8.55875 C12.71,9.82875 13.56875,11.1375 14.31875,12.48125 L14.31875,12.48125 Z M15.525,14.89375 C15.37,14.54375 15.2075,14.195 15.03625,13.85 C13.00875,14.4875 10.585,14.81125 7.78125,14.815 L7.77125,15 C7.77125,16.755 8.40125,18.365 9.44625,19.61875 C11.02875,17.2425 13.06,15.66375 15.525,14.89375 L15.525,14.89375 Z M10.5625,20.695 C12.52375,22.22625 15.15125,22.68125 17.5925,21.74 C17.2775,19.88 16.78,18.065 16.105,16.3 C13.83125,16.9775 11.99875,18.4425 10.5625,20.695 L10.5625,20.695 Z M19.40625,9.2825 C18.185,8.34 16.66,7.77125 15,7.77125 C14.3875,7.77125 13.795,7.85625 13.2275,8.00125 C14.1825,9.28625 15.02875,10.60875 15.77125,11.96625 C17.31625,11.31125 18.52625,10.41625 19.40625,9.2825 L19.40625,9.2825 Z M30,15 C30,23.28375 23.28375,30 15,30 C6.71625,30 0,23.28375 0,15 C0,6.71625 6.71625,0 15,0 C23.28375,0 30,6.71625 30,15 L30,15 Z M23.75,15 C23.75,10.1675 19.83125,6.25 15,6.25 C10.16875,6.25 6.25,10.1675 6.25,15 C6.25,19.8325 10.16875,23.75 15,23.75 C19.83125,23.75 23.75,19.8325 23.75,15 L23.75,15 Z M16.47,13.31375 C16.66625,13.71875 16.85125,14.1275 17.02875,14.53875 C18.60375,14.2675 20.33,14.28375 22.2075,14.59125 C22.11625,12.97625 21.5,11.49875 20.515,10.3375 C19.50625,11.59375 18.1525,12.585 16.47,13.31375 L16.47,13.31375 Z M17.6125,15.97875 C18.22375,17.615 18.69375,19.2925 19.01125,21.0075 C20.65125,19.9075 21.8125,18.1525 22.1325,16.12125 C20.48625,15.83625 18.98,15.78625 17.6125,15.97875 L17.6125,15.97875 Z" id="dribbble" fill="#0D41C2"></path>
    </g>
</svg>

<svg width="30" height="30" viewBox="0 0 30 30" xmlns="http://www.w3.org/2000/svg"><title>dribbble</title><path d="M14.319 12.481c-1.774.521-3.888.79-6.334.808a7.248 7.248 0 0 1 3.754-4.73 32.64 32.64 0 0 1 2.58 3.922zm1.206 2.413a26.3 26.3 0 0 0-.489-1.044c-2.027.638-4.451.961-7.255.965l-.01.185c0 1.755.63 3.365 1.675 4.619 1.583-2.377 3.614-3.955 6.079-4.725zm-4.963 5.801a7.163 7.163 0 0 0 7.03 1.045 28.546 28.546 0 0 0-1.487-5.44c-2.274.677-4.106 2.142-5.543 4.395zm8.844-11.412A7.188 7.188 0 0 0 15 7.77c-.613 0-1.205.085-1.773.23a33.97 33.97 0 0 1 2.544 3.965c1.545-.655 2.755-1.55 3.635-2.683zM30 15c0 8.284-6.716 15-15 15-8.284 0-15-6.716-15-15C0 6.716 6.716 0 15 0c8.284 0 15 6.716 15 15zm-6.25 0a8.75 8.75 0 1 0-17.502.002A8.75 8.75 0 0 0 23.75 15zm-7.28-1.686c.196.405.381.813.559 1.225 1.575-.271 3.301-.255 5.178.052a7.185 7.185 0 0 0-1.692-4.253c-1.009 1.256-2.363 2.247-4.045 2.976zm1.143 2.665a29.92 29.92 0 0 1 1.398 5.029 7.246 7.246 0 0 0 3.122-4.887c-1.647-.285-3.153-.335-4.52-.142z" fill="#0D41C2" fill-rule="evenodd"/></svg>
